X:269
T: Der Fabinder (33), S. 118f
N: T0158
O: Luxemburg
S: Singendes Volk, Esch-Alzette 1937 posth.]
N: Reuland, hhh Johann Frank, geschriebenes Liederheft, 1910
R: Liebeslieder]
M: 3/8
L: 1/16
K: G
D2 | G2GGG2 | G2G2B2 | A2B2c2 | d2d2c2 | B4
D2 | G2GGG2 | G2G2B2 | A2B2c2 | d2d2c2 | B4
c2 | B2B2d2 | d2d2e2 | d2B2
B2 | B4G2 | B4d2 | c2B2
A2 | G2G2G2 | c4e2 | d4
d2 | A4B2 | A2c2B2 | G4
c2 | B2B2d2 | d2d2e2 | d2B2
B2 | B4G2 | B4d2 | c2B2
A2 | G2G2G2 | c4e2 | d4
d2 | A4B2 | A2c2B2 | G4

@@@ Tune index: 8323
